X:1
T:The Meeting of the Waters
M:3/4
L:1/4
K:D
 A/2G/2| F3/2 E/2 D| D B, A,| A, B, C| D2 E/2F/2| G GF/2-E/2| F D F|\
 A F D| E2 E/2F/2| G GF/2-E/2| E F D| A F D| E2 D/2E/2| F3/2 E/2 D|\
 D B, A,| A, B, D| G2 A/2G/2| F E E| D B, A,| A, B, D| D2||
